assets/images/ozon_logo.svg

<svg fill="none" height="137" viewBox="0 0 371 137" width="371" xmlns="http://www.w3.org/2000/svg"><ellipse cx="253.5" cy="63" fill="#91ceeb" rx="35" ry="33"/><g fill="#265af5"><path clip-rule="evenodd" d="m52.5 41.4732c0 15.4504 11.689 23.5267 23.3779 23.5267 10.6263 0 23.0237-7.7252 23.0237-23.5267 0-14.3969-12.0432-22.4732-22.6695-22.4732s-23.7321 8.0763-23.7321 22.4732zm35.4211.3512c0-5.6183-4.2506-11.9389-11.689-11.9389-9.9179 0-12.7516 7.0229-13.1058 11.5877-.3542 4.5649 3.1879 12.9924 12.7516 12.9924 8.1469 0 12.0432-7.0229 12.0432-12.6412z" fill-rule="evenodd"/><path d="m110.637 20.0534h33.29c3.188 0 1.777 2.458 1.423 2.8092l-23.384 30.5496h19.128c1.771 0 4.959 1.4045 4.959 5.6183 0 4.2137-4.369 5.0509-6.376 5.0509h-36.125c-1.416 0-2.12-1.5395-.704-3.2952l22.757-29.8473h-13.555c-9.914 0-8.143-10.8855-1.413-10.8855z"/><path d="m221.859 22.1603v36.8738c0 5.9695 10.98 8.0804 10.98-2.4616v-15.8015l28.337 22.8194c1.771 1.4041 3.324.3539 3.324-1.3996v-36.1679c0-1.9898-1.011-5.9695-5.448-5.9695-4.436 0-5.314 3.8626-5.314 5.9695v17.5572l-27.627-21.7709c-3.19-2.8092-4.252-1.7558-4.252.3511z"/><path clip-rule="evenodd" d="m181.479 19.0001c-21.253 0-32.234 11.9387-32.234 23.1754 0 8.4275 8.147 22.8245 32.234 22.8245 24.655 0 32.587-15.4504 32.587-22.4733 0-10.8855-11.334-23.5266-32.587-23.5266zm0 10.8854c-11.334 0-21.607 5.9695-21.607 12.29s11.69 12.2902 21.607 12.2902c9.918 0 21.606-5.6185 21.606-12.2902 0-6.6716-9.917-12.29-21.606-12.29z" fill-rule="evenodd"/></g></svg>

<svg width="371" height="137" viewBox="0 0 371 137" fill="none" xmlns="http://www.w3.org/2000/svg">
<ellipse cx="253.5" cy="63" rx="35" ry="33" fill="#91CEEB"/>
<path fill-rule="evenodd" clip-rule="evenodd" d="M52.5 41.4732C52.5 56.9236 64.189 64.9999 75.8779 64.9999C86.5042 64.9999 98.9016 57.2747 98.9016 41.4732C98.9016 27.0763 86.8584 19 76.2321 19C65.6058 19 52.5 27.0763 52.5 41.4732ZM87.9211 41.8244C87.9211 36.2061 83.6705 29.8855 76.2321 29.8855C66.3142 29.8855 63.4805 36.9084 63.1263 41.4732C62.7721 46.0381 66.3142 54.4656 75.8779 54.4656C84.0248 54.4656 87.9211 47.4427 87.9211 41.8244Z" fill="#265AF5"/>
<path d="M110.637 20.0534H143.927C147.115 20.0534 145.704 22.5114 145.35 22.8626L121.966 53.4122H141.094C142.865 53.4122 146.053 54.8167 146.053 59.0305C146.053 63.2442 141.684 64.0814 139.677 64.0814H103.552C102.136 64.0814 101.432 62.5419 102.848 60.7862L125.605 30.9389H112.05C102.136 30.9389 103.907 20.0534 110.637 20.0534Z" fill="#265AF5"/>
<path d="M221.859 22.1603V59.0341C221.859 65.0036 232.839 67.1145 232.839 56.5725V40.771L261.176 63.5904C262.947 64.9945 264.5 63.9443 264.5 62.1908V26.0229C264.5 24.0331 263.489 20.0534 259.052 20.0534C254.616 20.0534 253.738 23.916 253.738 26.0229V43.5801L226.111 21.8092C222.921 19 221.859 20.0534 221.859 22.1603Z" fill="#265AF5"/>
<path fill-rule="evenodd" clip-rule="evenodd" d="M181.479 19.0001C160.226 19.0001 149.245 30.9388 149.245 42.1755C149.245 50.603 157.392 65 181.479 65C206.134 65 214.066 49.5496 214.066 42.5267C214.066 31.6412 202.732 19.0001 181.479 19.0001ZM181.479 29.8855C170.145 29.8855 159.872 35.855 159.872 42.1755C159.872 48.496 171.562 54.4657 181.479 54.4657C191.397 54.4657 203.085 48.8472 203.085 42.1755C203.085 35.5039 193.168 29.8855 181.479 29.8855Z" fill="#265AF5"/>
</svg>
